X: 35886
T: Sandy Cameron
R: reel
M: 4/4
K: Amixolydian
AB|cAAB cAAa|cAAc B2 ed|ceef edcA|BGGB dfed|
cAAB cAAa|cAAc B2 ed|ceef edcA|BGGB def^g||
a2 ef ecce|eaeg fef^g|a2 ef edcA|BGGB def^g|
a2 ef edcd|eaeg ~f3 ^g|aeea daca|BGGB dfed||
ceAe ceAe|ceAc B2 ed|ceef edcA|BGGB dfed|
ceAe ceAe|ceAc B2 ed|ceef edcA|BGGB defd||
(3ccc ac (3ccc ac|(3ccc ac dcBd|(3ccc ac (3ccc ac|BGGB dfed|
(3ccc ac (3ccc ac|(3ccc ac e2 f^g|a^gfe fed=c|BGGB d2 ed||

